src/lib/packages/icons/src/assets/line/arrow-left-to-line.svg

<svg width="24" height="24" viewBox="0 0 24 24" fill="none" xmlns="http://www.w3.org/2000/svg">
<path d="M21.75 12C21.75 12.414 21.414 12.75 21 12.75H8.81104L12.531 16.47C12.824 16.763 12.824 17.238 12.531 17.531C12.385 17.677 12.193 17.751 12.001 17.751C11.809 17.751 11.6169 17.678 11.4709 17.531L6.47095 12.531C6.40195 12.462 6.34708 12.3791 6.30908 12.2871C6.23308 12.1041 6.23308 11.8971 6.30908 11.7141C6.34708 11.6221 6.40195 11.539 6.47095 11.47L11.4709 6.46997C11.7639 6.17697 12.239 6.17697 12.532 6.46997C12.825 6.76297 12.825 7.23801 12.532 7.53101L8.81201 11.251H21C21.414 11.25 21.75 11.586 21.75 12ZM3 5.25C2.586 5.25 2.25 5.586 2.25 6V18C2.25 18.414 2.586 18.75 3 18.75C3.414 18.75 3.75 18.414 3.75 18V6C3.75 5.586 3.414 5.25 3 5.25Z" fill="currentColor"/>
</svg>

<svg xmlns="http://www.w3.org/2000/svg" width="24" height="24" fill="none"><path fill="currentColor" d="M21.75 12a.75.75 0 0 1-.75.75H8.811l3.72 3.72a.75.75 0 0 1-1.06 1.061l-5-5a.748.748 0 0 1-.162-.817.749.749 0 0 1 .162-.244l5-5a.75.75 0 0 1 1.061 1.061l-3.72 3.72H21a.749.749 0 0 1 .75.749ZM3 5.25a.75.75 0 0 0-.75.75v12a.75.75 0 0 0 1.5 0V6A.75.75 0 0 0 3 5.25Z"/></svg>
